app/client/src/assets/icons/blueprintjs/20px/sort-alphabetical-desc.svg

<svg xmlns="http://www.w3.org/2000/svg" xml:space="preserve" viewBox="0 0 20 20"><path fill-rule="evenodd" d="M8.01 15c-.28 0-.53.11-.71.29L6 16.59v-5.58c0-.55-.45-1-1-1s-1 .45-1 1v5.58L2.71 15.3c-.18-.18-.43-.3-.71-.3a1.003 1.003 0 0 0-.71 1.71l3 3a1.014 1.014 0 0 0 1.42 0l3-3c.18-.18.29-.43.29-.71.01-.55-.44-1-.99-1zm4.44-5.65 6.4-7.88V0H10.5v1.67h5.91L10 9.44v1.57h9V9.35h-6.55zm1.27 3.64L11 20h1.59l.56-1.56h2.68l.55 1.56h1.64l-2.68-7.01h-1.62zm-.16 4.3.93-2.57h.02l.9 2.57h-1.85z" clip-rule="evenodd"/></svg>

<?xml version="1.0" encoding="utf-8"?>
<!-- Generator: Adobe Illustrator 18.0.0, SVG Export Plug-In . SVG Version: 6.00 Build 0)  -->
<svg version="1.1" id="Layer_1" xmlns="http://www.w3.org/2000/svg" xmlns:xlink="http://www.w3.org/1999/xlink" x="0px" y="0px"
	 viewBox="0 0 20 20" enable-background="new 0 0 20 20" xml:space="preserve">
<g id="sort_alphabetical_desc_1_">
	<g>
		<path fill-rule="evenodd" clip-rule="evenodd" d="M8.01,15c-0.28,0-0.53,0.11-0.71,0.29L6,16.59v-5.58c0-0.55-0.45-1-1-1
			s-1,0.45-1,1v5.58L2.71,15.3C2.53,15.12,2.28,15,2,15c-0.55,0-1,0.45-1,1c0,0.28,0.11,0.53,0.29,0.71h0l3,3
			C4.48,19.89,4.73,20,5,20s0.53-0.11,0.71-0.29l3-3c0.18-0.18,0.29-0.43,0.29-0.71C9.01,15.45,8.56,15,8.01,15z M12.45,9.35
			l6.4-7.88V0h-8.35v1.67h5.91L10,9.44v1.57h9V9.35H12.45z M13.72,12.99L11,20h1.59l0.56-1.56h2.68L16.38,20h1.64l-2.68-7.01H13.72z
			 M13.56,17.29l0.93-2.57h0.02l0.9,2.57H13.56z"/>
	</g>
</g>
</svg>
